_icons/SVG/248-tyranitar.svg

<svg xmlns="http://www.w3.org/2000/svg" width="32" height="32"><path fill="#B4C187" d="M11.5 12c-3 0-8.208 2.667-9.5 5.375-.559 1.171.983 2.384 2.5 1.625 1-.5 3.125-2.083 5.583-2l1.417-5z"/><path fill="#EDEEEE" d="M2.757 17.7c-.347.207-1.665.509-1.754.143-.076-.313 1.204-1.202 1.488-1.124.525.145.469.859.266.981zm.208.212c-.286.072-.958 1.478-.737 1.713.258.274 1.255-.64 1.454-.991.116-.206-.189-.855-.717-.722zm1.381-.83c-.279.095-.562.844-.324 1.06.279.253.85-.216 1.02-.582.1-.215-.18-.653-.696-.478z"/><path fill="#A8B875" d="M20.5 12c3 0 8.208 2.667 9.5 5.375.559 1.171-.983 2.384-2.5 1.625-1-.5-3.125-2.083-5.583-2L20.5 12z"/><path fill="#E3E5E5" d="M29.509 16.719c.284-.078 1.564.811 1.488 1.124-.089.366-1.407.064-1.754-.143-.203-.122-.259-.836.266-.981zm-1.19 1.915c.199.352 1.196 1.265 1.454.991.221-.234-.452-1.64-.737-1.713-.529-.133-.834.516-.717.722zm-1.361-1.074c.17.366.741.835 1.02.582.238-.216-.045-.965-.324-1.06-.516-.175-.796.263-.696.478z"/><path fill="#90A74E" d="M22.301 22.312c1.566.488 3.007 1.13 4.586.353.725-.356 1.528-1.717 1.879-2.363a.125.125 0 01.233.043l.257 1.857 2.576-.837a.125.125 0 01.147.181l-1.488 2.61 1.443.816c.1.056.078.206-.033.231-.756.167-2.637.601-3.207.904-.72.381-1.253 1.398-2.791 2.135-1.93.925-5.762.59-6.154.32s2.552-6.25 2.552-6.25z"/><path fill="#B4C187" d="M6.417 14.292l-.95-3.152a.15.15 0 01.202-.18l2.123.915-.471-3.113c-.022-.144.155-.231.256-.125l3.257 3.446-4.417 2.209z"/><path fill="#C0C998" d="M16 2.417c-4.093 0-4.535 4.495-5.537 8.913-1.108 4.888-1.255 6.837-2.421 9.837C6.762 24.457 8.458 30 16 30V2.417z"/><path fill="#8694D1" d="M9.542 18.125c.105.699 4.057 6.079 5.667 7.812.271.292.354.479.792.479V13.604l-6.459 4.521z"/><path fill="#7C8AC4" d="M9.542 18.125c.105.699 4.057 6.079 5.667 7.812.271.292.354.479.792.479V17.16c-.774 0-2.455-.185-4.152-.649l-2.307 1.614z"/><path fill="#707EB7" d="M15.208 25.938c.2.215.299.372.513.441l.039.008c.068.018.143.03.24.03v-3.924c-1.107 0-2.881-.534-4.582-1.394 1.279 1.787 2.896 3.875 3.79 4.839z"/><path fill="#B4C187" d="M16 2.167c-4.093 0-4.535 4.745-5.537 9.163-1.304 2.639-2.405 6.731-2.836 8.21-.04.137.11.251.226.168a234.535 234.535 0 007.084-5.271c.455-.354.646-.437 1.063-.437V2.167z"/><path fill="#A8B875" d="M16 10.667c-1.542-.042-3.958-2-4.73-2.984-.176.707-.734 3.186-.895 3.942.333.833 4 1.625 5.625 1.75v-2.708z"/><path fill="#B4C187" d="M11.542 25.5c.047 2.861-.403 4.583-3.051 4.583-2.459 0-3.641-2.175-3.641-4.8s1.939-4.658 3.405-4.658c1.512 0 3.243 2.25 3.287 4.875z"/><path fill="#9EB164" d="M7.958 28.208c-.874-.058-1.5.312-1.75.979.292.667.524.868.396 1.083-.229.386-1.135 1.73-1.135 1.73h4.094c-.312-.406-.646-.875-.729-1.125-.042-.125.104-.271.312-.854.221-.618-.563-1.771-1.188-1.813z"/><path fill="#EDEEEE" d="M6.715 32H5.099c0-.517.804-.875 1.098-.875.546 0 .557.641.518.875zm1.821 0h1.615c0-.517-.804-.875-1.098-.875-.545 0-.556.641-.517.875zm-.306 0c.043-.474-.194-.733-.56-.754-.495-.029-.754.431-.754.754H8.23z"/><path fill="#373F3F" d="M13.887 13.576c-.067.234-3.02-.688-3.181-.86-.161-.172.464-1.36.837-1.305.374.054 2.438 1.835 2.344 2.165zm-8.071 8.669a5.313 5.313 0 00-.795 1.769c1.209.378 3.337.899 3.394.671.086-.345-1.63-1.81-2.599-2.44zm-.952 3.293c.021.68.125 1.32.311 1.9 1.237-.32 3.224-.964 3.155-1.182-.107-.337-2.304-.685-3.466-.718zm8.33-11.038c0-.292-2.062-.896-2.396-.771s.229 1.042.396 1.104c.166.063 2-.227 2-.333z"/><path fill="#FFF" d="M12.922 4.734c-.484.188-.85 1.516-.651 2.049.213.217 2.729.17 2.729.17l-2.078-2.219z"/><path fill="#373F3F" d="M15 6.953l-1.652-1.764c-.504.295-.582 1.452-.4 1.726.812.061 2.052.038 2.052.038z"/><ellipse fill="#FFF" cx="13.926" cy="6.175" rx=".443" ry=".534"/><path fill="#A8B875" d="M16 0c-.662 0-1.276 3.971-1.276 3.971l-2.877-1.137c-.237-.094-.448.182-.292.383C12.774 4.785 15.609 8.375 16 8.375V0zm9.583 14.292l.949-3.152a.15.15 0 00-.202-.18l-2.123.915.471-3.113c.022-.144-.155-.231-.256-.125l-3.257 3.446 4.418 2.209z"/><path fill="#B4C187" d="M16 2.417c4.093 0 4.535 4.495 5.537 8.913 1.108 4.888 1.255 6.837 2.421 9.837C25.238 24.457 23.542 30 16 30V2.417z"/><path fill="#7C8AC4" d="M22.458 18.125c-.105.699-4.057 6.079-5.667 7.812-.271.292-.354.479-.792.479V13.604l6.459 4.521z"/><path fill="#707EB7" d="M22.458 18.125c-.105.699-4.057 6.079-5.667 7.812-.271.292-.354.479-.792.479V17.16c.774 0 2.455-.185 4.152-.649l2.307 1.614z"/><path fill="#6673AA" d="M16.792 25.938c-.2.215-.299.372-.513.441l-.039.008a.907.907 0 01-.24.03v-3.924c1.107 0 2.881-.534 4.582-1.394-1.279 1.787-2.896 3.875-3.79 4.839z"/><path fill="#A8B875" d="M16 2.167c4.093 0 4.535 4.745 5.537 9.163 1.304 2.639 2.405 6.731 2.836 8.21.04.137-.11.251-.226.168a234.535 234.535 0 01-7.084-5.271C16.608 14.083 16.417 14 16 14V2.167z"/><path fill="#9EB164" d="M16 10.667c1.542-.042 3.958-2 4.73-2.984.176.707.734 3.186.895 3.942-.333.833-4 1.625-5.625 1.75v-2.708z"/><path fill="#A8B875" d="M20.458 25.5c-.047 2.861.403 4.583 3.051 4.583 2.459 0 3.641-2.175 3.641-4.8s-1.939-4.658-3.405-4.658c-1.512 0-3.243 2.25-3.287 4.875z"/><path fill="#97AC59" d="M24.042 28.208c.874-.058 1.5.312 1.75.979-.292.667-.524.868-.396 1.083.229.386 1.135 1.73 1.135 1.73h-4.094c.312-.406.646-.875.729-1.125.042-.125-.104-.271-.312-.854-.221-.618.563-1.771 1.188-1.813z"/><path fill="#E3E5E5" d="M25.802 31.125c.295 0 1.098.358 1.098.875h-1.615c-.039-.234-.028-.875.517-.875zm-2.855 0c-.295 0-1.098.358-1.098.875h1.615c.039-.234.028-.875-.517-.875zm2.137.875c0-.323-.259-.783-.754-.754-.366.022-.603.28-.56.754h1.314z"/><path fill="#2B3332" d="M18.114 13.576c.067.234 3.02-.688 3.181-.86.161-.172-.464-1.36-.837-1.305s-2.439 1.835-2.344 2.165zm8.07 8.669c.352.504.63 1.101.795 1.769-1.209.378-3.337.899-3.394.671-.086-.345 1.63-1.81 2.599-2.44zm.952 3.293a6.931 6.931 0 01-.311 1.9c-1.237-.32-3.224-.964-3.155-1.182.107-.337 2.304-.685 3.466-.718zM18.806 14.5c0-.292 2.062-.896 2.396-.771.333.125-.229 1.042-.396 1.104-.166.063-2-.227-2-.333z"/><path fill="#F7F7F7" d="M19.078 4.734c.484.188.85 1.516.651 2.049-.213.217-2.729.17-2.729.17l2.078-2.219z"/><path fill="#2B3332" d="M17 6.953l1.652-1.764c.504.295.582 1.452.4 1.726-.812.061-2.052.038-2.052.038z"/><ellipse fill="#F7F7F7" cx="18.074" cy="6.175" rx=".443" ry=".534"/><path fill="#9EB164" d="M16 0c.662 0 1.276 3.971 1.276 3.971l2.877-1.137c.237-.094.448.182.292.383C19.226 4.785 16.391 8.375 16 8.375V0z"/></svg>

<?xml version="1.0" encoding="utf-8"?>
<!-- Generator: Adobe Illustrator 23.0.6, SVG Export Plug-In . SVG Version: 6.00 Build 0)  -->
<svg version="1.1" xmlns="http://www.w3.org/2000/svg" xmlns:xlink="http://www.w3.org/1999/xlink" x="0px" y="0px" width="32px"
	 height="32px" viewBox="0 0 32 32" enable-background="new 0 0 32 32" xml:space="preserve">
<g id="labels">
	<g>
	</g>
</g>
<g id="icons">
	<g>
		<g>
			<path fill="#B4C187" d="M11.5,12c-3,0-8.208,2.667-9.5,5.375C1.441,18.546,2.983,19.759,4.5,19c1-0.5,3.125-2.083,5.583-2
				L11.5,12z"/>
			<path fill="#EDEEEE" d="M2.757,17.7c-0.347,0.207-1.665,0.509-1.754,0.143c-0.076-0.313,1.204-1.202,1.488-1.124
				C3.016,16.864,2.96,17.578,2.757,17.7z M2.965,17.912c-0.286,0.072-0.958,1.478-0.737,1.713c0.258,0.274,1.255-0.64,1.454-0.991
				C3.798,18.428,3.493,17.779,2.965,17.912z M4.346,17.082c-0.279,0.095-0.562,0.844-0.324,1.06c0.279,0.253,0.85-0.216,1.02-0.582
				C5.142,17.345,4.862,16.907,4.346,17.082z"/>
		</g>
		<g>
			<path fill="#A8B875" d="M20.5,12c3,0,8.208,2.667,9.5,5.375c0.559,1.171-0.983,2.384-2.5,1.625c-1-0.5-3.125-2.083-5.583-2
				L20.5,12z"/>
			<path fill="#E3E5E5" d="M29.509,16.719c0.284-0.078,1.564,0.811,1.488,1.124c-0.089,0.366-1.407,0.064-1.754-0.143
				C29.04,17.578,28.984,16.864,29.509,16.719z M28.319,18.634c0.199,0.352,1.196,1.265,1.454,0.991
				c0.221-0.234-0.452-1.64-0.737-1.713C28.507,17.779,28.202,18.428,28.319,18.634z M26.958,17.56
				c0.17,0.366,0.741,0.835,1.02,0.582c0.238-0.216-0.045-0.965-0.324-1.06C27.138,16.907,26.858,17.345,26.958,17.56z"/>
		</g>
		<path fill="#90A74E" d="M22.301,22.312c1.566,0.488,3.007,1.13,4.586,0.353c0.725-0.356,1.528-1.717,1.879-2.363
			c0.058-0.106,0.217-0.077,0.233,0.043l0.257,1.857l2.576-0.837c0.109-0.035,0.204,0.082,0.147,0.181l-1.488,2.61l1.443,0.816
			c0.1,0.056,0.078,0.206-0.033,0.231c-0.756,0.167-2.637,0.601-3.207,0.904c-0.72,0.381-1.253,1.398-2.791,2.135
			c-1.93,0.925-5.762,0.59-6.154,0.32S22.301,22.312,22.301,22.312z"/>
		<path fill="#B4C187" d="M6.417,14.292L5.467,11.14c-0.037-0.121,0.085-0.23,0.202-0.18l2.123,0.915L7.321,8.762
			C7.299,8.618,7.476,8.531,7.577,8.637l3.257,3.446L6.417,14.292z"/>
		<path fill="#C0C998" d="M16,2.417c-4.093,0-4.535,4.495-5.537,8.913c-1.108,4.888-1.255,6.837-2.421,9.837
			C6.762,24.457,8.458,30,16,30V2.417z"/>
		<path fill="#8694D1" d="M9.542,18.125c0.105,0.699,4.057,6.079,5.667,7.812c0.271,0.292,0.354,0.479,0.792,0.479V13.604
			L9.542,18.125z"/>
		<path fill="#7C8AC4" d="M9.542,18.125c0.105,0.699,4.057,6.079,5.667,7.812c0.271,0.292,0.354,0.479,0.792,0.479V17.16
			c-0.774,0-2.455-0.185-4.152-0.649L9.542,18.125z"/>
		<path fill="#707EB7" d="M15.208,25.938c0.2,0.215,0.299,0.372,0.513,0.441c0.013,0.003,0.026,0.006,0.039,0.008
			c0.068,0.018,0.143,0.03,0.24,0.03v-3.924c-1.107,0-2.881-0.534-4.582-1.394C12.697,22.886,14.314,24.974,15.208,25.938z"/>
		<path fill="#B4C187" d="M16,2.167c-4.093,0-4.535,4.745-5.537,9.163c-1.304,2.639-2.405,6.731-2.836,8.21
			c-0.04,0.137,0.11,0.251,0.226,0.168c2.552-1.811,5.731-4.216,7.084-5.271C15.392,14.083,15.583,14,16,14V2.167z"/>
		<path fill="#A8B875" d="M16,10.667c-1.542-0.042-3.958-2-4.73-2.984c-0.176,0.707-0.734,3.186-0.895,3.942
			c0.333,0.833,4,1.625,5.625,1.75V10.667z"/>
		<path fill="#B4C187" d="M11.542,25.5c0.047,2.861-0.403,4.583-3.051,4.583c-2.459,0-3.641-2.175-3.641-4.8
			s1.939-4.658,3.405-4.658C9.767,20.625,11.498,22.875,11.542,25.5z"/>
		<path fill="#9EB164" d="M7.958,28.208c-0.874-0.058-1.5,0.312-1.75,0.979c0.292,0.667,0.524,0.868,0.396,1.083
			C6.375,30.656,5.469,32,5.469,32s3.51,0,4.094,0c-0.312-0.406-0.646-0.875-0.729-1.125c-0.042-0.125,0.104-0.271,0.312-0.854
			C9.367,29.403,8.583,28.25,7.958,28.208z"/>
		<path fill="#EDEEEE" d="M6.715,32H5.099c0-0.517,0.804-0.875,1.098-0.875C6.743,31.125,6.754,31.766,6.715,32z M8.536,32h1.615
			c0-0.517-0.804-0.875-1.098-0.875C8.508,31.125,8.497,31.766,8.536,32z M8.23,32c0.043-0.474-0.194-0.733-0.56-0.754
			C7.175,31.217,6.916,31.677,6.916,32H8.23z"/>
		<path fill="#373F3F" d="M13.887,13.576c-0.067,0.234-3.02-0.688-3.181-0.86c-0.161-0.172,0.464-1.36,0.837-1.305
			C11.917,11.465,13.981,13.246,13.887,13.576z"/>
		<path fill="#373F3F" d="M5.816,22.245c-0.352,0.504-0.63,1.101-0.795,1.769c1.209,0.378,3.337,0.899,3.394,0.671
			C8.501,24.34,6.785,22.875,5.816,22.245z"/>
		<path fill="#373F3F" d="M4.864,25.538c0.021,0.68,0.125,1.32,0.311,1.9c1.237-0.32,3.224-0.964,3.155-1.182
			C8.223,25.919,6.026,25.571,4.864,25.538z"/>
		<path fill="#373F3F" d="M13.194,14.5c0-0.292-2.062-0.896-2.396-0.771s0.229,1.042,0.396,1.104
			C11.36,14.896,13.194,14.606,13.194,14.5z"/>
		<g>
			<path fill="#FFFFFF" d="M12.922,4.734c-0.484,0.188-0.85,1.516-0.651,2.049C12.484,7,15,6.953,15,6.953L12.922,4.734z"/>
			<path fill="#373F3F" d="M15,6.953l-1.652-1.764c-0.504,0.295-0.582,1.452-0.4,1.726C13.76,6.976,15,6.953,15,6.953z"/>
			<ellipse fill="#FFFFFF" cx="13.926" cy="6.175" rx="0.443" ry="0.534"/>
		</g>
		<path fill="#A8B875" d="M16,0c-0.662,0-1.276,3.971-1.276,3.971l-2.877-1.137c-0.237-0.094-0.448,0.182-0.292,0.383
			C12.774,4.785,15.609,8.375,16,8.375V0z"/>
		<path fill="#A8B875" d="M25.583,14.292l0.949-3.152c0.037-0.121-0.085-0.23-0.202-0.18l-2.123,0.915l0.471-3.113
			c0.022-0.144-0.155-0.231-0.256-0.125l-3.257,3.446L25.583,14.292z"/>
		<path fill="#B4C187" d="M16,2.417c4.093,0,4.535,4.495,5.537,8.913c1.108,4.888,1.255,6.837,2.421,9.837
			C25.238,24.457,23.542,30,16,30V2.417z"/>
		<path fill="#7C8AC4" d="M22.458,18.125c-0.105,0.699-4.057,6.079-5.667,7.812c-0.271,0.292-0.354,0.479-0.792,0.479V13.604
			L22.458,18.125z"/>
		<path fill="#707EB7" d="M22.458,18.125c-0.105,0.699-4.057,6.079-5.667,7.812c-0.271,0.292-0.354,0.479-0.792,0.479V17.16
			c0.774,0,2.455-0.185,4.152-0.649L22.458,18.125z"/>
		<path fill="#6673AA" d="M16.792,25.938c-0.2,0.215-0.299,0.372-0.513,0.441c-0.013,0.003-0.026,0.006-0.039,0.008
			c-0.068,0.018-0.143,0.03-0.24,0.03v-3.924c1.107,0,2.881-0.534,4.582-1.394C19.303,22.886,17.686,24.974,16.792,25.938z"/>
		<path fill="#A8B875" d="M16,2.167c4.093,0,4.535,4.745,5.537,9.163c1.304,2.639,2.405,6.731,2.836,8.21
			c0.04,0.137-0.11,0.251-0.226,0.168c-2.552-1.811-5.731-4.216-7.084-5.271C16.608,14.083,16.417,14,16,14V2.167z"/>
		<path fill="#9EB164" d="M16,10.667c1.542-0.042,3.958-2,4.73-2.984c0.176,0.707,0.734,3.186,0.895,3.942
			c-0.333,0.833-4,1.625-5.625,1.75V10.667z"/>
		<path fill="#A8B875" d="M20.458,25.5c-0.047,2.861,0.403,4.583,3.051,4.583c2.459,0,3.641-2.175,3.641-4.8
			s-1.939-4.658-3.405-4.658C22.233,20.625,20.502,22.875,20.458,25.5z"/>
		<path fill="#97AC59" d="M24.042,28.208c0.874-0.058,1.5,0.312,1.75,0.979c-0.292,0.667-0.524,0.868-0.396,1.083
			C25.625,30.656,26.531,32,26.531,32s-3.51,0-4.094,0c0.312-0.406,0.646-0.875,0.729-1.125c0.042-0.125-0.104-0.271-0.312-0.854
			C22.633,29.403,23.417,28.25,24.042,28.208z"/>
		<path fill="#E3E5E5" d="M25.802,31.125c0.295,0,1.098,0.358,1.098,0.875h-1.615C25.246,31.766,25.257,31.125,25.802,31.125z
			 M22.947,31.125c-0.295,0-1.098,0.358-1.098,0.875h1.615C23.503,31.766,23.492,31.125,22.947,31.125z M25.084,32
			c0-0.323-0.259-0.783-0.754-0.754c-0.366,0.022-0.603,0.28-0.56,0.754H25.084z"/>
		<path fill="#2B3332" d="M18.114,13.576c0.067,0.234,3.02-0.688,3.181-0.86c0.161-0.172-0.464-1.36-0.837-1.305
			S18.019,13.246,18.114,13.576z"/>
		<path fill="#2B3332" d="M26.184,22.245c0.352,0.504,0.63,1.101,0.795,1.769c-1.209,0.378-3.337,0.899-3.394,0.671
			C23.499,24.34,25.215,22.875,26.184,22.245z"/>
		<path fill="#2B3332" d="M27.136,25.538c-0.021,0.68-0.125,1.32-0.311,1.9c-1.237-0.32-3.224-0.964-3.155-1.182
			C23.777,25.919,25.974,25.571,27.136,25.538z"/>
		<path fill="#2B3332" d="M18.806,14.5c0-0.292,2.062-0.896,2.396-0.771c0.333,0.125-0.229,1.042-0.396,1.104
			C20.64,14.896,18.806,14.606,18.806,14.5z"/>
		<g>
			<path fill="#F7F7F7" d="M19.078,4.734c0.484,0.188,0.85,1.516,0.651,2.049C19.516,7,17,6.953,17,6.953L19.078,4.734z"/>
			<path fill="#2B3332" d="M17,6.953l1.652-1.764c0.504,0.295,0.582,1.452,0.4,1.726C18.24,6.976,17,6.953,17,6.953z"/>
			<ellipse fill="#F7F7F7" cx="18.074" cy="6.175" rx="0.443" ry="0.534"/>
		</g>
		<path fill="#9EB164" d="M16,0c0.662,0,1.276,3.971,1.276,3.971l2.877-1.137c0.237-0.094,0.448,0.182,0.292,0.383
			C19.226,4.785,16.391,8.375,16,8.375V0z"/>
	</g>
</g>
</svg>
